X:436
T:Egan's Polka 2
S:Various sessions
Z:Nigel Gatherer
M:2/4
L:1/8
K:G
BD ED | BD ED | G2 A>B | AG ED |
BD ED | BD ED | G2 A>B | AG G2 :|
Bd BA | AG ED | G2 A>B | AG ED |
Bd BA | AG ED | G2 A>B | AG G2 :|
<end>
<start>
